_includes/icons/ios-map-markers.svg

<svg fill="#666" height="50" viewBox="0 0 50 50" width="50" xmlns="http://www.w3.org/2000/svg"><path d="m25 1c-8.839844 0-16 7.160156-16 16 0 7.308594 3.859375 15.164063 7.65625 21.25 3.796875 6.085938 7.59375 10.40625 7.59375 10.40625.191406.214844.464844.339844.75.339844s.558594-.125.75-.339844c0 0 3.800781-4.410156 7.59375-10.53125s7.65625-13.957031 7.65625-21.125c0-8.839844-7.160156-16-16-16zm0 2c7.761719 0 14 6.238281 14 14 0 6.433594-3.636719 14.082031-7.34375 20.0625-3.105469 5.011719-5.734375 8.238281-6.65625 9.34375-.929687-1.097656-3.558594-4.253906-6.65625-9.21875-3.703125-5.9375-7.34375-13.597656-7.34375-20.1875 0-7.761719 6.238281-14 14-14zm0 8c-3.855469 0-7 3.144531-7 7s3.144531 7 7 7 7-3.144531 7-7-3.144531-7-7-7zm0 2c2.773438 0 5 2.226563 5 5 0 2.773438-2.226562 5-5 5-2.773437 0-5-2.226562-5-5 0-2.773437 2.226563-5 5-5z"/></svg>

<svg xmlns="http://www.w3.org/2000/svg" viewBox="0 0 50 50" width="50" height="50" fill="#666"><path d="M 25 1 C 16.160156 1 9 8.160156 9 17 C 9 24.308594 12.859375 32.164063 16.65625 38.25 C 20.453125 44.335938 24.25 48.65625 24.25 48.65625 C 24.441406 48.871094 24.714844 48.996094 25 48.996094 C 25.285156 48.996094 25.558594 48.871094 25.75 48.65625 C 25.75 48.65625 29.550781 44.246094 33.34375 38.125 C 37.136719 32.003906 41 24.167969 41 17 C 41 8.160156 33.839844 1 25 1 Z M 25 3 C 32.761719 3 39 9.238281 39 17 C 39 23.433594 35.363281 31.082031 31.65625 37.0625 C 28.550781 42.074219 25.921875 45.300781 25 46.40625 C 24.070313 45.308594 21.441406 42.152344 18.34375 37.1875 C 14.640625 31.25 11 23.589844 11 17 C 11 9.238281 17.238281 3 25 3 Z M 25 11 C 21.144531 11 18 14.144531 18 18 C 18 21.855469 21.144531 25 25 25 C 28.855469 25 32 21.855469 32 18 C 32 14.144531 28.855469 11 25 11 Z M 25 13 C 27.773438 13 30 15.226563 30 18 C 30 20.773438 27.773438 23 25 23 C 22.226563 23 20 20.773438 20 18 C 20 15.226563 22.226563 13 25 13 Z"/></svg>
